ceiling-light-outline.svg

<svg  viewBox="0 0 24 24" fill="currentColor"><path  d="M14.76 11L16.76 15H7.24L9.24 11H14.76M13 4H11V9H8L4 17H20L16 9H13V4M14 18H10C10 19.11 10.9 20 12 20S14 19.11 14 18Z"/></svg>

<svg fill="currentColor" viewBox="0 0 24 24"><path d="m14.76 11 2 4H7.24l2-4zM13 4h-2v5H8l-4 8h16l-4-8h-3zm1 14h-4a2 2 0 1 0 4 0"/></svg>
